X:141
T: Kaeuzlein
N: A0173
O: Europa, Mitteleuropa, Deutschland
N: Forster III 1549 No. 64.
R: Romanze, Ballade, Lied
M: 6/4
L: 1/8
K: G
G2 | G4G2B4B2 | G4A2B4
c2 | d4c2B4A2 | G6-G4
G2 | G4G2B4B2 | G4A2B4
c2 | d4c2B4A2 | G6-G4
G2 | G4B2A4A2 | D3EF2G4
G2 | B2d2c2B4A2 | G6-G4

